assets/img/braze_icons/currency-euro-circle.svg

<svg fill="none" height="24" viewBox="0 0 24 24" width="24" xmlns="http://www.w3.org/2000/svg"><path clip-rule="evenodd" d="m12 1c-6.07513 0-11 4.92487-11 11 0 6.0751 4.92487 11 11 11 6.0751 0 11-4.9249 11-11 0-6.07513-4.9249-11-11-11zm-4 11c0-.1693.01052-.3362.03095-.5h2.96905c.5523 0 1-.4477 1-1 0-.55228-.4477-1-1-1h-2.12269c.73306-.91446 1.85949-1.5 3.12269-1.5 1.0251 0 1.9581.38431 2.6664 1.01829.4115.36833 1.0437.33331 1.4121-.07822.3683-.41153.3333-1.04372-.0783-1.41205-1.0608-.94948-2.4641-1.52802-4.0002-1.52802-2.42149 0-4.50795 1.43447-5.45596 3.5h-.54404c-.55228 0-1 .44772-1 1 0 .5523.44772 1 1 1h.02054c-.0136.1649-.02054.3316-.02054.5s.00694.3351.02054.5h-.02054c-.55228 0-1 .4477-1 1s.44772 1 1 1h.54404c.94801 2.0655 3.03447 3.5 5.45596 3.5 1.5361 0 2.9394-.5785 4.0002-1.528.4116-.3683.4466-1.0005.0783-1.4121-.3684-.4115-1.0006-.4465-1.4121-.0782-.7083.634-1.6413 1.0183-2.6664 1.0183-1.2632 0-2.38963-.5855-3.12269-1.5h2.12269c.5523 0 1-.4477 1-1s-.4477-1-1-1h-2.96905c-.02043-.1638-.03095-.3307-.03095-.5z" fill="#801ed7" fill-rule="evenodd"/></svg>

<svg width="24" height="24" viewBox="0 0 24 24" fill="none" xmlns="http://www.w3.org/2000/svg">
<path fill-rule="evenodd" clip-rule="evenodd" d="M12 1C5.92487 1 1 5.92487 1 12C1 18.0751 5.92487 23 12 23C18.0751 23 23 18.0751 23 12C23 5.92487 18.0751 1 12 1ZM8 12C8 11.8307 8.01052 11.6638 8.03095 11.5H11C11.5523 11.5 12 11.0523 12 10.5C12 9.94772 11.5523 9.5 11 9.5H8.87731C9.61037 8.58554 10.7368 8 12 8C13.0251 8 13.9581 8.38431 14.6664 9.01829C15.0779 9.38662 15.7101 9.3516 16.0785 8.94007C16.4468 8.52854 16.4118 7.89635 16.0002 7.52802C14.9394 6.57854 13.5361 6 12 6C9.57851 6 7.49205 7.43447 6.54404 9.5H6C5.44772 9.5 5 9.94772 5 10.5C5 11.0523 5.44772 11.5 6 11.5H6.02054C6.00694 11.6649 6 11.8316 6 12C6 12.1684 6.00694 12.3351 6.02054 12.5H6C5.44772 12.5 5 12.9477 5 13.5C5 14.0523 5.44772 14.5 6 14.5H6.54404C7.49205 16.5655 9.57851 18 12 18C13.5361 18 14.9394 17.4215 16.0002 16.472C16.4118 16.1037 16.4468 15.4715 16.0785 15.0599C15.7101 14.6484 15.0779 14.6134 14.6664 14.9817C13.9581 15.6157 13.0251 16 12 16C10.7368 16 9.61037 15.4145 8.87731 14.5H11C11.5523 14.5 12 14.0523 12 13.5C12 12.9477 11.5523 12.5 11 12.5H8.03095C8.01052 12.3362 8 12.1693 8 12Z" fill="#801ED7"/>
</svg>
